X:1
T:James Gibb editions
T:Pueri Hebraeorum - Schubert
%%score [ 1 2 3 4 ]
L:1/8
Q:1/4=96
M:4/4
K:G
V:1 treble nm="Soprano" snm="S"
V:2 treble nm="Alto" snm="A"
V:3 treble-8 nm="Tenor" snm="T"
V:4 bass nm="Bass" snm="B"
V:1
"^moderato""^Pueri Hebraeorum, D696:4""^Franz Schubert\n(1797-1828)" B2 BB B2 B2 | c4 B2 B2 | %2
w: Pu- e- ri He- brae-|o- rum por-|
 e2 d2 c2 B2 | A2 B2 c4 |[M:4/4] B8 | B2 BB B2 B2 | c3 c B3 B | e2 d2 c2 B2 | (A2 B2 c4) | %9
w: tan- tes ra- mos|o- li- va-|rum|ob- vi- a- ve- runt|Do- mi- no cla-|man- tes et di-|cen\- * *|
 B6!f! d2 | e4 d2 dd | e8 | !fermata!d8 |] %13
w: tes: Ho-|san- na in ex-|cel-|sis.|
V:2
 G2 GG G2 G2 | A4 G2 G2 | G2 G2 G2 G2 | F2 G4 F2 |[M:4/4] G8 | G2 GG G2 G2 | A3 A G3 G | %7
w: Pu- e- ri He- brae-|o- rum por-|tan- tes ra- mos|o- li- va-|rum|ob- vi- a- ve- runt|Do- mi- no cla-|
 G2 G2 G2 G2 | (F2 G4 F2) | G6!f! G2 | G4 G2 GG | G8 | !fermata!G8 |] %13
w: man- tes et di-|cen\- * *|tes: Ho-|san- na in ex-|cel-|sis.|
V:3
!p! d2 dd d2 d2 | d4 d2 d2 | c2 B2 c2 d2 | d2 d2 d4 |[M:4/4][K:treble-8] d8 | d2 dd d2 d2 | %6
w: Pu- e- ri He- brae-|o- rum por-|tan- tes ra- mos|o- li- va-|rum|ob- vi- a- ve- runt|
 d3 d d3 d | c2 B2 c2 d2 | d8 | d6!f! B2 | c4 B2 BB | c8 | !fermata!B8 |] %13
w: Do- mi- no cla-|man- tes et di-|cen-|tes: Ho-|san- na in ex-|cel-|sis.|
V:4
 G,2 G,G, G,2 G,2 | F,4 G,2 G,2 | C,2 G,2 E,2 G,2 | D,2 G,2 D,4 |[M:4/4] G,8 | G,2 G,G, G,2 G,2 | %6
w: Pu- e- ri He- brae-|o- rum por-|tan- tes ra- mos|o- li- va-|rum|ob- vi- a- ve- runt|
 F,3 F, G,3 G, | C,2 G,2 E,2 G,2 | (D,2 G,2 A,2 D,2) | G,6!f! G,2 | C,4 G,2 G,G, | C,8 | %12
w: Do- mi- no cla-|man- tes et di-|cen\- * * *|tes: Ho-|san- na in ex-|cel-|
 !fermata!G,8 |] %13
w: sis.|

